korla/apps/scalable/kbackup.svg

<svg width="48" height="48" xmlns="http://www.w3.org/2000/svg">
 <path d="m5.25 5c-.6925 0-1.25.5575-1.25 1.25v22.5c0 .692.5575 1.25 1.25 1.25h17.5c.692 0 1.25-.558 1.25-1.25v-15.75l-6.875-1.125-1.125-6.875z" opacity=".2"/>
 <path d="m5.25 4c-.6925 0-1.25.5575-1.25 1.25v22.5c0 .692.5575 1.25 1.25 1.25h17.5c.692 0 1.25-.558 1.25-1.25v-15.75l-6.875-1.125-1.125-6.875z" fill="#e4e4e4"/>
 <path d="m16 5v6.6667c0 .736.597 1.333 1.333 1.333h6.667v-.9997l-8-7.0003z" opacity=".2"/>
 <path d="m16 4v6.6667c0 .736.597 1.333 1.333 1.333h6.667l-8-8z" fill="#fafafa"/>
 <path d="m5.25 4c-.6925 0-1.25.5575-1.25 1.25v1c0-.6925.5575-1.25 1.25-1.25h10.75v-1z" fill="#fff" opacity=".2"/>
 <path d="m8 15v2h12v-2z" opacity=".5"/>
 <path d="m8 19v2h12v-2z" opacity=".5"/>
 <path d="m8 23v2h12v-2z" opacity=".5"/>
 <rect transform="matrix(0 -1 -1 0 0 0)" x="-44" y="-44" width="26" height="26" rx="1.3" fill="#4f4f4f"/>
 <path d="m19.301 18c-.7202 0-1.3008.5806-1.3008 1.3008v1c0-.7202.5806-1.3008 1.3008-1.3008h23.398c.72 0 1.301.5806 1.301 1.3008v-1c0-.7202-.581-1.3008-1.301-1.3008z" fill="#fff" opacity=".1"/>
 <path d="m18.0002 42.699v1c0 .72.5806 1.301 1.3008 1.301h23.398c.72 0 1.301-.581 1.301-1.301v-1c0 .72-.581 1.301-1.301 1.301h-23.398c-.7204 0-1.301-.581-1.301-1.301z" opacity=".2"/>
 <path d="m25.1842 19c-.114.1967-.184.4214-.184.666v8c0 .739.595 1.334 1.334 1.334h13.332c.739 0 1.334-.595 1.334-1.334v-8c0-.2446-.07-.4693-.184-.666zm9.5312 2h3.5703c.396 0 .715.2967.715.666v4.668c0 .369-.319.666-.715.666h-3.5703c-.396 0-.715-.297-.715-.666v-4.668c0-.3693.319-.666.715-.666z" opacity=".2"/>
 <path d="m25.1842 18c-.114.1967-.184.4214-.184.666v8c0 .739.595 1.334 1.334 1.334h13.332c.739 0 1.334-.595 1.334-1.334v-8c0-.2446-.07-.4693-.184-.666zm9.5312 2h3.5703c.396 0 .715.2967.715.666v4.668c0 .369-.319.666-.715.666h-3.5703c-.396 0-.715-.297-.715-.666v-4.668c0-.3693.319-.666.715-.666z" fill="#b7b7b7"/>
 <path d="m22.2502 30c-.6925 0-1.25.595-1.25 1.334v7.666h20v-7.666c0-.739-.558-1.334-1.25-1.334zm-.8848 11.609c.1695.181.3883.311.6328.364-.2445-.053-.4633-.183-.6328-.364zm19.27 0c-.17.181-.389.311-.633.364.245-.053.463-.183.633-.364z" fill="#fff"/>
 <path d="m41.0002 40v1.6667c0 .738-.558 1.333-1.25 1.333h-17.5c-.6925 0-1.25-.595-1.25-1.333v-1.667z" opacity=".2"/>
 <path d="m41.0002 39v1.6667c0 .738-.558 1.333-1.25 1.333h-17.5c-.6925 0-1.25-.595-1.25-1.333v-1.667z" fill="#9153cf"/>
</svg>

<svg xmlns="http://www.w3.org/2000/svg" width="48" height="48" version="1">
 <path style="opacity:0.2" d="M 5.25,5 C 4.5575,5 4,5.5575 4,6.25 v 22.5 C 4,29.442 4.5575,30 5.25,30 h 17.5 C 23.442,30 24,29.442 24,28.75 V 13 L 17.125,11.875 16,5 Z"/>
 <path style="fill:#e4e4e4" d="M 5.25,4 C 4.5575,4 4,4.5575 4,5.25 v 22.5 C 4,28.442 4.5575,29 5.25,29 h 17.5 C 23.442,29 24,28.442 24,27.75 V 12 L 17.125,10.875 16,4 Z"/>
 <path style="opacity:0.2" d="m 16,5 v 6.6667 c 0,0.736 0.597,1.333 1.333,1.333 H 24 V 12 L 16,4.9997 Z"/>
 <path style="fill:#fafafa" d="m 16,4 v 6.6667 c 0,0.736 0.597,1.333 1.333,1.333 H 24 l -8,-8 z"/>
 <path style="opacity:0.2;fill:#ffffff" d="M 5.25,4 C 4.5575,4 4,4.5575 4,5.25 v 1 C 4,5.5575 4.5575,5 5.25,5 H 16 V 4 Z"/>
 <path style="opacity:0.5" d="m 8,15 v 2 h 12 v -2 z"/>
 <path style="opacity:0.5" d="m 8,19 v 2 h 12 v -2 z"/>
 <path style="opacity:0.5" d="m 8,23 v 2 h 12 v -2 z"/>
 <rect style="fill:#4f4f4f" width="26" height="26" x="-44" y="-44" rx="1.3" ry="1.3" transform="matrix(0,-1,-1,0,0,0)"/>
 <path style="opacity:0.1;fill:#ffffff" d="m 19.301,18 c -0.7202,0 -1.3008,0.5806 -1.3008,1.3008 v 1 C 18.0002,19.5806 18.5808,19 19.301,19 H 42.699 C 43.419,19 44,19.5806 44,20.3008 v -1 C 44,18.5806 43.419,18 42.699,18 Z"/>
 <path style="opacity:0.2" d="m 18.0002,42.699 v 1 c 0,0.72 0.5806,1.301 1.3008,1.301 H 42.699 C 43.419,45 44,44.419 44,43.699 v -1 C 44,43.419 43.419,44 42.699,44 H 19.301 C 18.5806,44 18,43.419 18,42.699 Z"/>
 <path style="opacity:0.2" d="m 25.1842,19 c -0.114,0.1967 -0.184,0.4214 -0.184,0.666 v 8 c 0,0.739 0.595,1.334 1.334,1.334 h 13.332 c 0.739,0 1.334,-0.595 1.334,-1.334 v -8 c 0,-0.2446 -0.07,-0.4693 -0.184,-0.666 z m 9.5312,2 h 3.5703 c 0.396,0 0.715,0.2967 0.715,0.666 v 4.668 c 0,0.369 -0.319,0.666 -0.715,0.666 h -3.5703 c -0.396,0 -0.715,-0.297 -0.715,-0.666 v -4.668 c 0,-0.3693 0.319,-0.666 0.715,-0.666 z"/>
 <path style="fill:#b7b7b7" d="m 25.1842,18 c -0.114,0.1967 -0.184,0.4214 -0.184,0.666 v 8 c 0,0.739 0.595,1.334 1.334,1.334 h 13.332 c 0.739,0 1.334,-0.595 1.334,-1.334 v -8 c 0,-0.2446 -0.07,-0.4693 -0.184,-0.666 z m 9.5312,2 h 3.5703 c 0.396,0 0.715,0.2967 0.715,0.666 v 4.668 c 0,0.369 -0.319,0.666 -0.715,0.666 h -3.5703 c -0.396,0 -0.715,-0.297 -0.715,-0.666 v -4.668 c 0,-0.3693 0.319,-0.666 0.715,-0.666 z"/>
 <path style="fill:#ffffff" d="m 22.2502,30 c -0.6925,0 -1.25,0.595 -1.25,1.334 V 39 h 20 v -7.666 c 0,-0.739 -0.558,-1.334 -1.25,-1.334 z m -0.8848,11.609 c 0.1695,0.181 0.3883,0.311 0.6328,0.364 -0.2445,-0.053 -0.4633,-0.183 -0.6328,-0.364 z m 19.27,0 c -0.17,0.181 -0.389,0.311 -0.633,0.364 0.245,-0.053 0.463,-0.183 0.633,-0.364 z"/>
 <path style="opacity:0.2" d="m 41.0002,40 v 1.6667 c 0,0.738 -0.558,1.333 -1.25,1.333 h -17.5 c -0.6925,0 -1.25,-0.595 -1.25,-1.333 v -1.667 z"/>
 <path style="fill:#9153cf" d="m 41.0002,39 v 1.6667 c 0,0.738 -0.558,1.333 -1.25,1.333 h -17.5 c -0.6925,0 -1.25,-0.595 -1.25,-1.333 v -1.667 z"/>
</svg>
